!!!!SEGMENT: pl-sa--551-a-ix-31--009_krogulski-jozef-wladyslaw--mazur.krn
!!!cenid: 18xx:508
!!!COM: Krogulski, Józef Władysław
!!!COM-rism: pe30001797
!!!CDT: 1815/10/04-1842/01/09
!!!CNT: Polish
!!!OTL: Mazur
!!!PDT:
!!!AGN: Secular; Mazurka
!!!SMS-siglum: PL-SA
!!!SMS-shelfmark: 551/A IX 31
!!!NIFC-rismID: 1001069473
!!!URL-scan: http://bc.bdsandomierz.pl/dlibra/publication/1307/edition/1275/content
!!!ONB-nifc: Str. 10 (s. 3) – str. 11 (s. 2)
!!!SMS-variant:
!!!SMS-altvar:
**kern	**kern	**dynam
*part1	*part1	*part1
*staff2	*staff1	*
*I"Piano	*	*
*I'pf	*	*
*clefF4	*clefG2	*
*k[f#]	*k[f#]	*
*M3/8	*M3/8	*
*>[A,A]	*>[A,A]	*
=1	=1	=1
*>A	*>A	*
!	!	!LO:DY:rj
8G 8GG/	8.g\L	p
*tremolo	*	*
!LO:N:vis=4.	!	!
!LO:TX:a:t=P:problem:w źródle wartość 4.; VHV mimo zakodowanej zmiany wyświetlania wartości, nie pokazuje tej zmiany	!	!
8d 8B 8G\L	.	.
.	16b\L	.
8d 8B 8G\J	16dd\	.
.	16cc#X\JJ	.
*Xtremolo	*	*
=2	=2	=2
!LO:TX:a:t=P:note position:w źródle 8A#X przed 8G:problem	!	!
8eL 8A#X 8G\	16.ee\LL	.
.	32cc#X\JJk	.
8d 8B 8G\	8dd\L	.
8dJ 8B 8G\	8ff#\J	.
=3	=3	=3
*rep	*	*
8eL 8A#X 8G\	8.g\L	.
8d 8B 8G\	.	.
.	16b\L	.
8dJ 8B 8G\	16dd\	.
.	16cc#X\JJ	.
*Xrep	*	*
!!LO:LB:g=original
=4	=4	=4
*rep	*	*
8eL 8A#X 8G\	16.ee\LL	.
.	32cc#X\JJk	.
8d 8B 8G\	8dd\	.
8dJ 8B 8G\	8r	.
*Xrep	*	*
=5	=5	=5
8D 8DD/	8.aL 8.f#\	.
4c 4A 4F# 4D\	.	.
.	16eeL 16cc\	.
.	16dd 16b\	.
.	16ccJJ 16a\	.
=6	=6	=6
4.ryy	16bLL 16g\	.
.	16ddJJ 16b\	.
.	8.ggL 8.b 8.g\	.
.	16ff#Jk 16dd\	.
=7	=7	=7
8C 8CC/	16eeLL 16cc\	.
.	16dd 16b\	.
8AL 8E 8C\	16cc 16a\	.
.	16a\	.
!	!LO:N:vis=8.	!
8AJ 8E 8C\	16dd 16f#\	.
.	16f#JJ 16c\	.
=8	=8	=8
!LO:TX:a:t=P:problem:mixed beam	!	!
8G\L	4g 4B/	.
8GG/J	.	.
8r	8r	.
=9||	=9||	=9||
*	*^	*
!	!	!	!LO:DY:rj
8D 8DD/	16.a/LL	16.f#\LL	f
.	32a/JJk	32f#\JJk	.
8AL 8F# 8D\	8.dd/L	8f#\L	.
8BJ 8G 8D\	.	8g\J	.
.	16b/Jk	.	.
*	*v	*v	*
=10	=10	=10
8D 8DD/	16.aLL 16.f#/	.
.	32aJJk 32f#/	.
*tremolo	*	*
8A 8F# 8C\L	8.ff#L 8.a\	.
8A 8F# 8C\J	.	.
.	32eeLL 32g\	.
.	32ddJJJ 32f#\	.
*Xtremolo	*	*
!!LO:PB:g=original
=11	=11	=11
!	!LO:N:vis=16	!
8AA 8AAA/	16.cc#XLL 16.e\	.
.	32ddJJk 32f#\	.
*tremolo	*	*
8c#X 8A 8E\L	8eeL 8g\	.
8c#X 8A 8E\J	8ff#J 8a\	.
*Xtremolo	*	*
=12	=12	=12
8D 8DD/	8ddL 8f#\	.
*tremolo	*	*
8d 8A 8F# 8D\L	8ff# 8dd 8a\	.
8d 8A 8F# 8D\J	8aaJ 8ff# 8dd\	.
*Xtremolo	*	*
=13	=13	=13
*	*^	*
8D 8DD/	16.a/LL	16.f#\LL	.
.	32a/JJk	32f#\JJk	.
8AL 8F# 8D\	8.dd/L	8f#\L	.
8BJ 8G 8D\	.	8g\J	.
.	16b/Jk	.	.
=14	=14	=14	=14
8D 8DD/	16.a/LL	16.f#\LL	.
.	32a/JJk	32f#\JJk	.
*tremolo	*	*	*
8A 8F# 8D\L	8.ff#L 8.a\	4rFyy	.
8A 8F# 8D\J	.	.	.
.	32eeLL 32g\	.	.
.	32ddJJJ 32f#\	.	.
*Xtremolo	*	*	*
*	*v	*v	*
=15	=15	=15
8AA 8AAA/	16cc#XLL 16e\	.
.	16b#X 16d#X\	.
*tremolo	*	*
8c#X 8A 8E\L	16cc# 16e\	.
.	16ee 16g\	.
!	!LO:CIS:s=bn	!
8c#X 8A 8E\J	16.gg 16.b#\	.
.	32ff#JJk 32a\	.
*Xtremolo	*	*
=16	=16	=16
8dL 8A 8F# 8D\	4dd 4f#\	.
8DJ 8DD\	.	.
8r	8r	.
=17||	=17||	=17||
8dL 8B 8G\	8.ggL 8.b\	.
8r	.	.
.	16aaL 16cc\	.
8dJ 8B 8G\	16bb 16dd\	.
.	16aa#XJJ 16cc#X\	.
=18	=18	=18
*rep	*	*
8dL 8B 8G\	8aanL 8ccn\	.
8r	8.bb 8.dd\	.
8dJ 8B 8G\	.	.
.	16ggJk 16b\	.
*Xrep	*	*
!!LO:LB:g=original
=19	=19	=19
*rep	*	*
8dL 8B 8G\	8eeeL 8ccc\	.
8r	8.ddd 8.bb\	.
8dJ 8B 8G\	.	.
.	16bbJk 16gg\	.
*Xrep	*	*
=20	=20	=20
8eL 8c\	8ggL 8ee\	.
8.d 8.B\	8ddJ 8g\	.
*	*clefF4	*
.	8GG/	.
16BJk 16G\	.	.
*	*clefG2	*
=21	=21	=21
8cL 8A 8D\	16ff#LL 16a\|	.
.	16ggJJ 16b\|	.
8r	8.aaL 8.cc\|	.
8cJ 8A 8D\	.	.
.	16bbJk 16dd\|	.
=22	=22	=22
8dL 8B 8G\	8ggL 8b\|	.
8r	8ddd 8bb\|	.
8dJ 8B 8G\	16cccL 16aa\|	.
.	16bbJJ 16gg\|	.
=23	=23	=23
8cL 8A 8D\	8aaL 8ff#\|	.
8r	8ccc 8ee\|	.
8cJ 8A 8D\	16bbL 16dd\|	.
.	16aaJJ 16cc\|	.
=24	=24	=24
!LO:TX:a:t=P:problem:mixed beam	!	!
8d\L 8B\ 8G\	4gg 4b\	.
8GG/J	.	.
8r	8r	.
=:|!	=:|!	=:|!
*-	*-	*-
!!!system-decoration: {(s1,s2)}
!!!EED: Antoni Szymański
!!!EST: 2020-12-05
!!!ENC: Marcin Jachim
!!!END: 2020-06-17
!!!RDF**kern: | = vertical stroke
